images/278037.svg

<?xml version="1.0" encoding="UTF-8"?>
<svg xmlns="http://www.w3.org/2000/svg" xmlns:xlink="http://www.w3.org/1999/xlink" width="300pt" height="300pt" viewBox="0 0 300 300" version="1.1">
<defs>
<g>
<symbol overflow="visible" id="glyph0-0">
<path style="stroke:none;" d="M 0.453125 1.59375 L 0.453125 -6.34375 L 4.953125 -6.34375 L 4.953125 1.59375 Z M 0.953125 1.09375 L 4.453125 1.09375 L 4.453125 -5.84375 L 0.953125 -5.84375 Z M 0.953125 1.09375 "/>
</symbol>
<symbol overflow="visible" id="glyph0-1">
<path style="stroke:none;" d="M 0.890625 -6.5625 L 2.078125 -6.5625 L 4.984375 -1.078125 L 4.984375 -6.5625 L 5.84375 -6.5625 L 5.84375 0 L 4.65625 0 L 1.75 -5.484375 L 1.75 0 L 0.890625 0 Z M 0.890625 -6.5625 "/>
</symbol>
<symbol overflow="visible" id="glyph0-2">
<path style="stroke:none;" d="M 0.890625 -6.5625 L 1.765625 -6.5625 L 1.765625 -3.875 L 5 -3.875 L 5 -6.5625 L 5.890625 -6.5625 L 5.890625 0 L 5 0 L 5 -3.125 L 1.765625 -3.125 L 1.765625 0 L 0.890625 0 Z M 0.890625 -6.5625 "/>
</symbol>
<symbol overflow="visible" id="glyph0-3">
<path style="stroke:none;" d="M 3.546875 -5.953125 C 2.898438 -5.953125 2.382812 -5.710938 2 -5.234375 C 1.625 -4.753906 1.4375 -4.101562 1.4375 -3.28125 C 1.4375 -2.445312 1.625 -1.789062 2 -1.3125 C 2.382812 -0.832031 2.898438 -0.59375 3.546875 -0.59375 C 4.191406 -0.59375 4.703125 -0.832031 5.078125 -1.3125 C 5.453125 -1.789062 5.640625 -2.445312 5.640625 -3.28125 C 5.640625 -4.101562 5.453125 -4.753906 5.078125 -5.234375 C 4.703125 -5.710938 4.191406 -5.953125 3.546875 -5.953125 Z M 3.546875 -6.6875 C 4.460938 -6.6875 5.195312 -6.375 5.75 -5.75 C 6.300781 -5.132812 6.578125 -4.3125 6.578125 -3.28125 C 6.578125 -2.238281 6.300781 -1.410156 5.75 -0.796875 C 5.195312 -0.179688 4.460938 0.125 3.546875 0.125 C 2.617188 0.125 1.878906 -0.179688 1.328125 -0.796875 C 0.773438 -1.410156 0.5 -2.238281 0.5 -3.28125 C 0.5 -4.3125 0.773438 -5.132812 1.328125 -5.75 C 1.878906 -6.375 2.617188 -6.6875 3.546875 -6.6875 Z M 3.546875 -6.6875 "/>
</symbol>
</g>
</defs>
<g id="surface49321">
<rect x="0" y="0" width="300" height="300" style="fill:rgb(100%,100%,100%);fill-opacity:1;stroke:none;"/>
<path style="fill:none;stroke-width:1.2;stroke-linecap:butt;stroke-linejoin:miter;stroke:rgb(0%,0%,0%);stroke-opacity:1;stroke-miterlimit:10;" d="M 47.351562 181.589844 L 35.25 160.6875 "/>
<path style="fill:none;stroke-width:1.2;stroke-linecap:butt;stroke-linejoin:miter;stroke:rgb(0%,0%,0%);stroke-opacity:1;stroke-miterlimit:10;" d="M 51.0625 176.652344 L 41.378906 159.929688 "/>
<path style="fill:none;stroke-width:1.2;stroke-linecap:butt;stroke-linejoin:miter;stroke:rgb(0%,0%,0%);stroke-opacity:1;stroke-miterlimit:10;" d="M 71.507812 181.5625 L 47.351562 181.589844 "/>
<path style="fill:none;stroke-width:1.2;stroke-linecap:butt;stroke-linejoin:miter;stroke:rgb(0%,0%,0%);stroke-opacity:1;stroke-miterlimit:10;" d="M 35.25 160.6875 L 47.300781 139.753906 "/>
<path style="fill:none;stroke-width:1.2;stroke-linecap:butt;stroke-linejoin:miter;stroke:rgb(0%,0%,0%);stroke-opacity:1;stroke-miterlimit:10;" d="M 47.300781 139.753906 L 71.457031 139.722656 "/>
<path style="fill:none;stroke-width:1.2;stroke-linecap:butt;stroke-linejoin:miter;stroke:rgb(0%,0%,0%);stroke-opacity:1;stroke-miterlimit:10;" d="M 49.726562 145.433594 L 69.050781 145.410156 "/>
<path style="fill:none;stroke-width:1.2;stroke-linecap:butt;stroke-linejoin:miter;stroke:rgb(0%,0%,0%);stroke-opacity:1;stroke-miterlimit:10;" d="M 71.457031 139.722656 L 83.558594 160.628906 "/>
<path style="fill:none;stroke-width:1.2;stroke-linecap:butt;stroke-linejoin:miter;stroke:rgb(0%,0%,0%);stroke-opacity:1;stroke-miterlimit:10;" d="M 83.507812 118.789062 L 71.457031 139.722656 "/>
<path style="fill:none;stroke-width:1.2;stroke-linecap:butt;stroke-linejoin:miter;stroke:rgb(0%,0%,0%);stroke-opacity:1;stroke-miterlimit:10;" d="M 83.558594 160.628906 L 71.507812 181.5625 "/>
<path style="fill:none;stroke-width:1.2;stroke-linecap:butt;stroke-linejoin:miter;stroke:rgb(0%,0%,0%);stroke-opacity:1;stroke-miterlimit:10;" d="M 77.429688 159.886719 L 67.789062 176.632812 "/>
<path style="fill:none;stroke-width:1.2;stroke-linecap:butt;stroke-linejoin:miter;stroke:rgb(0%,0%,0%);stroke-opacity:1;stroke-miterlimit:10;" d="M 83.558594 160.628906 L 107.714844 160.597656 "/>
<path style="fill:none;stroke-width:1.2;stroke-linecap:butt;stroke-linejoin:miter;stroke:rgb(0%,0%,0%);stroke-opacity:1;stroke-miterlimit:10;" d="M 107.714844 160.597656 L 119.769531 139.664062 "/>
<path style="fill:none;stroke-width:1.2;stroke-linecap:butt;stroke-linejoin:miter;stroke:rgb(0%,0%,0%);stroke-opacity:1;stroke-miterlimit:10;" d="M 113.847656 161.339844 L 123.488281 144.59375 "/>
<path style="fill:none;stroke-width:1.2;stroke-linecap:butt;stroke-linejoin:miter;stroke:rgb(0%,0%,0%);stroke-opacity:1;stroke-miterlimit:10;" d="M 119.820312 181.503906 L 107.714844 160.597656 "/>
<path style="fill:none;stroke-width:1.2;stroke-linecap:butt;stroke-linejoin:miter;stroke:rgb(0%,0%,0%);stroke-opacity:1;stroke-miterlimit:10;" d="M 119.769531 139.664062 L 143.921875 139.636719 "/>
<path style="fill:none;stroke-width:1.2;stroke-linecap:butt;stroke-linejoin:miter;stroke:rgb(0%,0%,0%);stroke-opacity:1;stroke-miterlimit:10;" d="M 119.769531 139.664062 L 113.714844 129.210938 "/>
<path style="fill:none;stroke-width:1.2;stroke-linecap:butt;stroke-linejoin:miter;stroke:rgb(0%,0%,100%);stroke-opacity:1;stroke-miterlimit:10;" d="M 113.714844 129.210938 L 107.664062 118.761719 "/>
<path style="fill:none;stroke-width:1.2;stroke-linecap:butt;stroke-linejoin:miter;stroke:rgb(0%,0%,0%);stroke-opacity:1;stroke-miterlimit:10;" d="M 143.921875 139.636719 L 156.027344 160.539062 "/>
<path style="fill:none;stroke-width:1.2;stroke-linecap:butt;stroke-linejoin:miter;stroke:rgb(0%,0%,0%);stroke-opacity:1;stroke-miterlimit:10;" d="M 140.214844 144.574219 L 149.898438 161.296875 "/>
<path style="fill:none;stroke-width:1.2;stroke-linecap:butt;stroke-linejoin:miter;stroke:rgb(0%,0%,0%);stroke-opacity:1;stroke-miterlimit:10;" d="M 156.027344 160.539062 L 143.972656 181.472656 "/>
<path style="fill:none;stroke-width:1.2;stroke-linecap:butt;stroke-linejoin:miter;stroke:rgb(0%,0%,0%);stroke-opacity:1;stroke-miterlimit:10;" d="M 156.027344 160.539062 L 168.105469 160.527344 "/>
<path style="fill:none;stroke-width:1.2;stroke-linecap:butt;stroke-linejoin:miter;stroke:rgb(0%,0%,100%);stroke-opacity:1;stroke-miterlimit:10;" d="M 168.105469 160.527344 L 180.179688 160.511719 "/>
<path style="fill:none;stroke-width:1.2;stroke-linecap:butt;stroke-linejoin:miter;stroke:rgb(0%,0%,0%);stroke-opacity:1;stroke-miterlimit:10;" d="M 143.972656 181.472656 L 119.820312 181.503906 "/>
<path style="fill:none;stroke-width:1.2;stroke-linecap:butt;stroke-linejoin:miter;stroke:rgb(0%,0%,0%);stroke-opacity:1;stroke-miterlimit:10;" d="M 141.550781 175.792969 L 122.226562 175.816406 "/>
<path style="fill:none;stroke-width:1.2;stroke-linecap:butt;stroke-linejoin:miter;stroke:rgb(0%,0%,100%);stroke-opacity:1;stroke-miterlimit:10;" d="M 180.179688 160.511719 L 186.234375 170.964844 "/>
<path style="fill:none;stroke-width:1.2;stroke-linecap:butt;stroke-linejoin:miter;stroke:rgb(0%,0%,0%);stroke-opacity:1;stroke-miterlimit:10;" d="M 186.234375 170.964844 L 192.285156 181.414062 "/>
<path style=" stroke:none;fill-rule:nonzero;fill:rgb(100%,100%,100%);fill-opacity:1;" d="M 173.179688 155.011719 L 187.179688 155.011719 L 187.179688 166.011719 L 173.179688 166.011719 Z M 173.179688 155.011719 "/>
<g style="fill:rgb(0%,0%,100%);fill-opacity:1;">
  <use xlink:href="#glyph0-1" x="173.179688" y="163.674805"/>
  <use xlink:href="#glyph0-2" x="180.157227" y="163.674805"/>
</g>
<path style="fill:none;stroke-width:1.2;stroke-linecap:butt;stroke-linejoin:miter;stroke:rgb(0%,0%,0%);stroke-opacity:1;stroke-miterlimit:10;" d="M 189.820312 179.996094 L 183.796875 190.464844 "/>
<path style="fill:none;stroke-width:1.2;stroke-linecap:butt;stroke-linejoin:miter;stroke:rgb(100%,0%,0%);stroke-opacity:1;stroke-miterlimit:10;" d="M 183.796875 190.464844 L 177.769531 200.929688 "/>
<path style="fill:none;stroke-width:1.2;stroke-linecap:butt;stroke-linejoin:miter;stroke:rgb(0%,0%,0%);stroke-opacity:1;stroke-miterlimit:10;" d="M 194.746094 182.832031 L 188.722656 193.300781 "/>
<path style="fill:none;stroke-width:1.2;stroke-linecap:butt;stroke-linejoin:miter;stroke:rgb(100%,0%,0%);stroke-opacity:1;stroke-miterlimit:10;" d="M 188.722656 193.300781 L 182.695312 203.765625 "/>
<path style="fill:none;stroke-width:1.2;stroke-linecap:butt;stroke-linejoin:miter;stroke:rgb(0%,0%,0%);stroke-opacity:1;stroke-miterlimit:10;" d="M 192.285156 181.414062 L 216.441406 181.386719 "/>
<path style=" stroke:none;fill-rule:nonzero;fill:rgb(100%,100%,100%);fill-opacity:1;" d="M 172.230469 196.847656 L 180.230469 196.847656 L 180.230469 207.847656 L 172.230469 207.847656 Z M 172.230469 196.847656 "/>
<g style="fill:rgb(100%,0%,0%);fill-opacity:1;">
  <use xlink:href="#glyph0-3" x="172.230469" y="205.510742"/>
</g>
<path style="fill:none;stroke-width:1.2;stroke-linecap:butt;stroke-linejoin:miter;stroke:rgb(0%,0%,0%);stroke-opacity:1;stroke-miterlimit:10;" d="M 216.441406 181.386719 L 228.542969 202.289062 "/>
<path style="fill:none;stroke-width:1.2;stroke-linecap:butt;stroke-linejoin:miter;stroke:rgb(0%,0%,0%);stroke-opacity:1;stroke-miterlimit:10;" d="M 222.570312 180.628906 L 232.25 197.351562 "/>
<path style="fill:none;stroke-width:1.2;stroke-linecap:butt;stroke-linejoin:miter;stroke:rgb(0%,0%,0%);stroke-opacity:1;stroke-miterlimit:10;" d="M 228.492188 160.453125 L 216.441406 181.386719 "/>
<path style="fill:none;stroke-width:1.2;stroke-linecap:butt;stroke-linejoin:miter;stroke:rgb(0%,0%,0%);stroke-opacity:1;stroke-miterlimit:10;" d="M 228.542969 202.289062 L 252.699219 202.261719 "/>
<path style="fill:none;stroke-width:1.2;stroke-linecap:butt;stroke-linejoin:miter;stroke:rgb(0%,0%,0%);stroke-opacity:1;stroke-miterlimit:10;" d="M 252.699219 202.261719 L 264.75 181.328125 "/>
<path style="fill:none;stroke-width:1.2;stroke-linecap:butt;stroke-linejoin:miter;stroke:rgb(0%,0%,0%);stroke-opacity:1;stroke-miterlimit:10;" d="M 248.976562 197.332031 L 258.621094 180.585938 "/>
<path style="fill:none;stroke-width:1.2;stroke-linecap:butt;stroke-linejoin:miter;stroke:rgb(0%,0%,0%);stroke-opacity:1;stroke-miterlimit:10;" d="M 264.75 181.328125 L 252.648438 160.421875 "/>
<path style="fill:none;stroke-width:1.2;stroke-linecap:butt;stroke-linejoin:miter;stroke:rgb(0%,0%,0%);stroke-opacity:1;stroke-miterlimit:10;" d="M 252.648438 160.421875 L 228.492188 160.453125 "/>
<path style="fill:none;stroke-width:1.2;stroke-linecap:butt;stroke-linejoin:miter;stroke:rgb(0%,0%,0%);stroke-opacity:1;stroke-miterlimit:10;" d="M 250.238281 166.109375 L 230.914062 166.132812 "/>
<path style="fill:none;stroke-width:1.2;stroke-linecap:butt;stroke-linejoin:miter;stroke:rgb(0%,0%,0%);stroke-opacity:1;stroke-miterlimit:10;" d="M 228.492188 160.453125 L 216.390625 139.546875 "/>
<path style="fill:none;stroke-width:1.2;stroke-linecap:butt;stroke-linejoin:miter;stroke:rgb(0%,0%,0%);stroke-opacity:1;stroke-miterlimit:10;" d="M 216.390625 139.546875 L 192.234375 139.578125 "/>
<path style="fill:none;stroke-width:1.2;stroke-linecap:butt;stroke-linejoin:miter;stroke:rgb(0%,0%,0%);stroke-opacity:1;stroke-miterlimit:10;" d="M 213.964844 133.867188 L 194.640625 133.890625 "/>
<path style="fill:none;stroke-width:1.2;stroke-linecap:butt;stroke-linejoin:miter;stroke:rgb(0%,0%,0%);stroke-opacity:1;stroke-miterlimit:10;" d="M 228.441406 118.613281 L 216.390625 139.546875 "/>
<path style="fill:none;stroke-width:1.2;stroke-linecap:butt;stroke-linejoin:miter;stroke:rgb(0%,0%,0%);stroke-opacity:1;stroke-miterlimit:10;" d="M 192.234375 139.578125 L 180.128906 118.671875 "/>
<path style="fill:none;stroke-width:1.2;stroke-linecap:butt;stroke-linejoin:miter;stroke:rgb(0%,0%,0%);stroke-opacity:1;stroke-miterlimit:10;" d="M 180.128906 118.671875 L 192.183594 97.738281 "/>
<path style="fill:none;stroke-width:1.2;stroke-linecap:butt;stroke-linejoin:miter;stroke:rgb(0%,0%,0%);stroke-opacity:1;stroke-miterlimit:10;" d="M 186.261719 119.414062 L 195.902344 102.667969 "/>
<path style="fill:none;stroke-width:1.2;stroke-linecap:butt;stroke-linejoin:miter;stroke:rgb(0%,0%,0%);stroke-opacity:1;stroke-miterlimit:10;" d="M 192.183594 97.738281 L 216.339844 97.710938 "/>
<path style="fill:none;stroke-width:1.2;stroke-linecap:butt;stroke-linejoin:miter;stroke:rgb(0%,0%,0%);stroke-opacity:1;stroke-miterlimit:10;" d="M 216.339844 97.710938 L 228.441406 118.613281 "/>
<path style="fill:none;stroke-width:1.2;stroke-linecap:butt;stroke-linejoin:miter;stroke:rgb(0%,0%,0%);stroke-opacity:1;stroke-miterlimit:10;" d="M 212.628906 102.648438 L 222.3125 119.371094 "/>
<path style="fill:none;stroke-width:1.2;stroke-linecap:butt;stroke-linejoin:miter;stroke:rgb(0%,0%,0%);stroke-opacity:1;stroke-miterlimit:10;" d="M 228.441406 118.613281 L 252.597656 118.585938 "/>
<path style="fill:none;stroke-width:1.2;stroke-linecap:butt;stroke-linejoin:miter;stroke:rgb(0%,0%,0%);stroke-opacity:1;stroke-miterlimit:10;" d="M 250.136719 120.007812 L 256.1875 130.460938 "/>
<path style="fill:none;stroke-width:1.2;stroke-linecap:butt;stroke-linejoin:miter;stroke:rgb(100%,0%,0%);stroke-opacity:1;stroke-miterlimit:10;" d="M 256.1875 130.460938 L 262.238281 140.914062 "/>
<path style="fill:none;stroke-width:1.2;stroke-linecap:butt;stroke-linejoin:miter;stroke:rgb(0%,0%,0%);stroke-opacity:1;stroke-miterlimit:10;" d="M 255.054688 117.160156 L 261.105469 127.613281 "/>
<path style="fill:none;stroke-width:1.2;stroke-linecap:butt;stroke-linejoin:miter;stroke:rgb(100%,0%,0%);stroke-opacity:1;stroke-miterlimit:10;" d="M 261.105469 127.613281 L 267.160156 138.066406 "/>
<path style="fill:none;stroke-width:1.2;stroke-linecap:butt;stroke-linejoin:miter;stroke:rgb(0%,0%,0%);stroke-opacity:1;stroke-miterlimit:10;" d="M 252.597656 118.585938 L 258.621094 108.117188 "/>
<path style="fill:none;stroke-width:1.2;stroke-linecap:butt;stroke-linejoin:miter;stroke:rgb(100%,0%,0%);stroke-opacity:1;stroke-miterlimit:10;" d="M 258.621094 108.117188 L 264.648438 97.652344 "/>
<path style=" stroke:none;fill-rule:nonzero;fill:rgb(100%,100%,100%);fill-opacity:1;" d="M 260.699219 133.988281 L 268.699219 133.988281 L 268.699219 144.988281 L 260.699219 144.988281 Z M 260.699219 133.988281 "/>
<g style="fill:rgb(100%,0%,0%);fill-opacity:1;">
  <use xlink:href="#glyph0-3" x="260.699219" y="142.651367"/>
</g>
<path style=" stroke:none;fill-rule:nonzero;fill:rgb(100%,100%,100%);fill-opacity:1;" d="M 257.648438 92.152344 L 272.648438 92.152344 L 272.648438 103.152344 L 257.648438 103.152344 Z M 257.648438 92.152344 "/>
<g style="fill:rgb(100%,0%,0%);fill-opacity:1;">
  <use xlink:href="#glyph0-3" x="257.648438" y="100.81543"/>
  <use xlink:href="#glyph0-2" x="264.990234" y="100.81543"/>
</g>
<path style="fill:none;stroke-width:1.2;stroke-linecap:butt;stroke-linejoin:miter;stroke:rgb(0%,0%,100%);stroke-opacity:1;stroke-miterlimit:10;" d="M 107.664062 118.761719 L 95.585938 118.773438 "/>
<path style="fill:none;stroke-width:1.2;stroke-linecap:butt;stroke-linejoin:miter;stroke:rgb(0%,0%,0%);stroke-opacity:1;stroke-miterlimit:10;" d="M 95.585938 118.773438 L 83.507812 118.789062 "/>
<path style=" stroke:none;fill-rule:nonzero;fill:rgb(100%,100%,100%);fill-opacity:1;" d="M 100.664062 113.261719 L 114.664062 113.261719 L 114.664062 124.261719 L 100.664062 124.261719 Z M 100.664062 113.261719 "/>
<g style="fill:rgb(0%,0%,100%);fill-opacity:1;">
  <use xlink:href="#glyph0-1" x="100.664062" y="121.924805"/>
  <use xlink:href="#glyph0-2" x="107.641602" y="121.924805"/>
</g>
<path style="fill:none;stroke-width:1.2;stroke-linecap:butt;stroke-linejoin:miter;stroke:rgb(0%,0%,0%);stroke-opacity:1;stroke-miterlimit:10;" d="M 85.96875 117.367188 L 79.917969 106.914062 "/>
<path style="fill:none;stroke-width:1.2;stroke-linecap:butt;stroke-linejoin:miter;stroke:rgb(100%,0%,0%);stroke-opacity:1;stroke-miterlimit:10;" d="M 79.917969 106.914062 L 73.867188 96.460938 "/>
<path style="fill:none;stroke-width:1.2;stroke-linecap:butt;stroke-linejoin:miter;stroke:rgb(0%,0%,0%);stroke-opacity:1;stroke-miterlimit:10;" d="M 81.050781 120.214844 L 75 109.761719 "/>
<path style="fill:none;stroke-width:1.2;stroke-linecap:butt;stroke-linejoin:miter;stroke:rgb(100%,0%,0%);stroke-opacity:1;stroke-miterlimit:10;" d="M 75 109.761719 L 68.949219 99.308594 "/>
<path style=" stroke:none;fill-rule:nonzero;fill:rgb(100%,100%,100%);fill-opacity:1;" d="M 63.40625 92.386719 L 71.40625 92.386719 L 71.40625 103.386719 L 63.40625 103.386719 Z M 63.40625 92.386719 "/>
<g style="fill:rgb(100%,0%,0%);fill-opacity:1;">
  <use xlink:href="#glyph0-3" x="63.40625" y="101.049805"/>
</g>
</g>
</svg>

<svg xmlns="http://www.w3.org/2000/svg" xmlns:xlink="http://www.w3.org/1999/xlink" width="300pt" height="300pt" viewBox="0 0 300 300"><defs><symbol overflow="visible"><path d="M.453 1.594v-7.938h4.5v7.938zm.5-.5h3.5v-6.938h-3.5zm0 0"/></symbol><symbol overflow="visible" id="a"><path d="M.89-6.563H2.08l2.906 5.485v-5.484h.86V0H4.656L1.75-5.484V0H.89zm0 0"/></symbol><symbol overflow="visible" id="b"><path d="M.89-6.563h.876v2.688H5v-2.688h.89V0H5v-3.125H1.766V0H.89zm0 0"/></symbol><symbol overflow="visible" id="c"><path d="M3.547-5.953c-.65 0-1.164.242-1.547.72-.375.48-.563 1.13-.563 1.952 0 .835.188 1.49.563 1.967.383.48.898.72 1.547.72.644 0 1.156-.24 1.53-.72.376-.476.564-1.132.564-1.968 0-.822-.187-1.474-.562-1.954-.375-.477-.887-.72-1.53-.72zm0-.734c.914 0 1.648.312 2.203.937.55.617.828 1.438.828 2.47 0 1.042-.277 1.87-.828 2.483-.555.617-1.29.922-2.203.922-.93 0-1.668-.305-2.22-.922C.774-1.41.5-2.237.5-3.28c0-1.033.273-1.853.828-2.47.55-.625 1.29-.938 2.22-.938zm0 0"/></symbol></defs><g><path fill="#fff" d="M0 0h300v300H0z"/><path d="M47.352 181.59L35.25 160.687M51.063 176.652l-9.684-16.722M71.508 181.563l-24.156.027M35.25 160.688l12.05-20.934M47.3 139.754l24.157-.03M49.727 145.434l19.324-.024M71.457 139.723L83.56 160.63M83.508 118.79l-12.05 20.933M83.56 160.63l-12.052 20.933M77.43 159.887l-9.64 16.746M83.56 160.63l24.155-.032M107.715 160.598l12.055-20.934M113.848 161.34l9.64-16.746M119.82 181.504l-12.105-20.906M119.77 139.664l24.152-.027M119.77 139.664l-6.055-10.453" stroke-width="1.2" stroke="#000" stroke-miterlimit="10" fill="none"/><path d="M113.715 129.21l-6.05-10.448" stroke-width="1.2" stroke="#00f" stroke-miterlimit="10" fill="none"/><path d="M143.922 139.637l12.105 20.902M140.215 144.574l9.683 16.723M156.027 160.54l-12.054 20.933M156.027 160.54l12.078-.013" stroke-width="1.2" stroke="#000" stroke-miterlimit="10" fill="none"/><path d="M168.105 160.527l12.075-.015" stroke-width="1.2" stroke="#00f" stroke-miterlimit="10" fill="none"/><path d="M143.973 181.473l-24.153.03M141.55 175.793l-19.323.023" stroke-width="1.2" stroke="#000" stroke-miterlimit="10" fill="none"/><path d="M180.18 160.512l6.054 10.453" stroke-width="1.2" stroke="#00f" stroke-miterlimit="10" fill="none"/><path d="M186.234 170.965l6.05 10.45" stroke-width="1.2" stroke="#000" stroke-miterlimit="10" fill="none"/><path d="M173.18 155.012h14v11h-14zm0 0" fill="#fff"/><g fill="#00f"><use xlink:href="#a" x="173.18" y="163.675"/><use xlink:href="#b" x="180.157" y="163.675"/></g><path d="M189.82 179.996l-6.023 10.47" stroke-width="1.2" stroke="#000" stroke-miterlimit="10" fill="none"/><path d="M183.797 190.465l-6.027 10.465" stroke-width="1.2" stroke="#f00" stroke-miterlimit="10" fill="none"/><path d="M194.746 182.832l-6.023 10.47" stroke-width="1.2" stroke="#000" stroke-miterlimit="10" fill="none"/><path d="M188.723 193.3l-6.028 10.466" stroke-width="1.2" stroke="#f00" stroke-miterlimit="10" fill="none"/><path d="M192.285 181.414l24.156-.027" stroke-width="1.2" stroke="#000" stroke-miterlimit="10" fill="none"/><path d="M172.23 196.848h8v11h-8zm0 0" fill="#fff"/><use xlink:href="#c" x="172.23" y="205.511" fill="#f00"/><path d="M216.44 181.387l12.103 20.902M222.57 180.63l9.68 16.722M228.492 160.453l-12.05 20.934M228.543 202.29l24.156-.028M252.7 202.262l12.05-20.934M248.977 197.332l9.644-16.746M264.75 181.328l-12.102-20.906M252.648 160.422l-24.156.03M250.238 166.11l-19.324.023M228.492 160.453l-12.1-20.906M216.39 139.547l-24.156.03M213.965 133.867l-19.324.024M228.44 118.613l-12.05 20.934M192.234 139.578l-12.105-20.906M180.13 118.672l12.054-20.934M186.262 119.414l9.64-16.746M192.184 97.738l24.156-.027M216.34 97.71l12.1 20.903M212.63 102.648l9.683 16.723M228.44 118.613l24.158-.027M250.137 120.008l6.05 10.453" stroke-width="1.2" stroke="#000" stroke-miterlimit="10" fill="none"/><path d="M256.188 130.46l6.05 10.454" stroke-width="1.2" stroke="#f00" stroke-miterlimit="10" fill="none"/><path d="M255.055 117.16l6.05 10.453" stroke-width="1.2" stroke="#000" stroke-miterlimit="10" fill="none"/><path d="M261.105 127.613l6.055 10.453" stroke-width="1.2" stroke="#f00" stroke-miterlimit="10" fill="none"/><path d="M252.598 118.586l6.023-10.47" stroke-width="1.2" stroke="#000" stroke-miterlimit="10" fill="none"/><path d="M258.62 108.117l6.028-10.465" stroke-width="1.2" stroke="#f00" stroke-miterlimit="10" fill="none"/><path d="M260.7 133.988h8v11h-8zm0 0" fill="#fff"/><use xlink:href="#c" x="260.699" y="142.651" fill="#f00"/><path d="M257.648 92.152h15v11h-15zm0 0" fill="#fff"/><g fill="#f00"><use xlink:href="#c" x="257.648" y="100.815"/><use xlink:href="#b" x="264.99" y="100.815"/></g><path d="M107.664 118.762l-12.078.01" stroke-width="1.2" stroke="#00f" stroke-miterlimit="10" fill="none"/><path d="M95.586 118.773l-12.078.016" stroke-width="1.2" stroke="#000" stroke-miterlimit="10" fill="none"/><path d="M100.664 113.262h14v11h-14zm0 0" fill="#fff"/><g fill="#00f"><use xlink:href="#a" x="100.664" y="121.925"/><use xlink:href="#b" x="107.642" y="121.925"/></g><path d="M85.97 117.367l-6.052-10.453" stroke-width="1.2" stroke="#000" stroke-miterlimit="10" fill="none"/><path d="M79.918 106.914l-6.05-10.453" stroke-width="1.2" stroke="#f00" stroke-miterlimit="10" fill="none"/><path d="M81.05 120.215L75 109.762" stroke-width="1.2" stroke="#000" stroke-miterlimit="10" fill="none"/><path d="M75 109.762L68.95 99.31" stroke-width="1.2" stroke="#f00" stroke-miterlimit="10" fill="none"/><path d="M63.406 92.387h8v11h-8zm0 0" fill="#fff"/><use xlink:href="#c" x="63.406" y="101.05" fill="#f00"/></g></svg>
